X: 673
T: The Drummond lasses
C: anon.
O: Ireland
B: Francis O'Neill: "The Dance Music of Ireland" (1907) no. 673
R: Reel
Z: Transcribed by Frank Nordberg - http://www.musicaviva.com
F: http://www.musicaviva.com/abc/tunes/ireland/oneill-1001/oneill-1001-067
3.abc
m: ~n2 = o/4n/m/4n
M: C|
L: 1/8
K: G
G2(BG) dGBG|G2(BG) EAAF|G2(BG) dGBd|cABG (EG)G2|G2(BG) dGBG|dGBG EAAF|G2(
Bc) dege|dBAG (EG)G2||
gfed (3(Bcd) (ef)|gfed eaaf|gfed BcdB|cABG EGGd|gfed (3(Bcd) (ef)|gfed (e
a) ~a2|bgaf gedB|cABG (EG)G2|]
W:
W:
W: From Musica Viva - http://www.musicaviva.com
W: the Internet center for free sheet music downloads.


